src/fileIcons/FileIconTxt/FileIconTxt_size_m.svg

<svg viewBox="0 0 30 40" xmlns="http://www.w3.org/2000/svg">
  <path
    d="M28 0H2C0.89543 0 0 0.89543 0 2V38C0 39.1046 0.89543 40 2 40H28C29.1046 40 30 39.1046 30 38V2C30 0.89543 29.1046 0 28 0Z"
  />
  <path
    opacity="0.6"
    fill-rule="evenodd"
    clip-rule="evenodd"
    d="M7 20H23V19H7V20ZM7 24H23V23H7V24ZM23 28H7V27H23V28ZM7 32H12V31H7V32Z"
    fill="#fff"
  />
  <path
    fill-rule="evenodd"
    clip-rule="evenodd"
    d="M11.05 11.9996C10.71 11.9996 10.45 11.8896 10.27 11.6696C10.09 11.4496 10 11.1596 10 10.7996V7.9998H9V6.99961H10V6H11V6.99961H12V7.9998H11V10.6C11 10.7467 11.0367 10.85 11.11 10.91C11.1833 10.97 11.2967 11 11.45 11L12 11.0004V12L11.05 11.9996ZM14 11.9998H13V9.99982H14V8.99982H13V6.99982H14V8.49982L15 8.99982L16 8.49982V6.99982H17V8.99982H16V9.99982H17V11.9998H16V10.4998L15 9.99982L14 10.4998V11.9998ZM19.27 11.6696C19.45 11.8896 19.71 11.9996 20.05 11.9996L21 12V11.0004L20.45 11C20.2967 11 20.1833 10.97 20.11 10.91C20.0367 10.85 20 10.7467 20 10.6V7.9998H21V6.99961H20V6H19V6.99961H18V7.9998H19V10.7996C19 11.1596 19.09 11.4496 19.27 11.6696Z"
    fill="#fff"
  />
</svg>

<svg viewBox="0 0 30 40" xmlns="http://www.w3.org/2000/svg">
  <path d="M28 0H2a2 2 0 00-2 2v36a2 2 0 002 2h26a2 2 0 002-2V2a2 2 0 00-2-2z" />
  <path
    fill="#fff"
    d="M7.5 19h15a.5.5 0 010 1h-15a.5.5 0 010-1zm0 3h9a.5.5 0 010 1h-9a.5.5 0 010-1zm0 3h11a.5.5 0 010 1h-11a.5.5 0 010-1zm0 6h13a.5.5 0 010 1h-13a.5.5 0 010-1zm0-3h7a.5.5 0 010 1h-7a.5.5 0 010-1z"
    opacity=".5"
  />
  <path
    fill="#fff"
    fill-rule="evenodd"
    d="M11.05 12c-.34 0-.6-.11-.78-.33-.18-.22-.27-.51-.27-.87V8H9V7h1V6h1v1h1v1h-1v2.6c0 .147.037.25.11.31.073.06.187.09.34.09H12v1h-.95zM14 12h-1v-2h1V9h-1V7h1v1.5l1 .5 1-.5V7h1v2h-1v1h1v2h-1v-1.5l-1-.5-1 .5V12zm5.27-.33c.18.22.44.33.78.33H21v-1h-.55c-.153 0-.267-.03-.34-.09-.073-.06-.11-.163-.11-.31V8h1V7h-1V6h-1v1h-1v1h1v2.8c0 .36.09.65.27.87z"
    clip-rule="evenodd"
  />
</svg>
